common/src/main/resources/icons/logos/gateway-eap.svg

<!--
  - The MIT License (MIT)
  -
  - Copyright (c) 2015-2022 Elior "Mallowigi" Boukhobza
  -
  - Permission is hereby granted, free of charge, to any person obtaining a copy
  - of this software and associated documentation files (the "Software"), to deal
  - in the Software without restriction, including without limitation the rights
  - to use, copy, modify, merge, publish, distribute, sublicense, and/or sell
  - copies of the Software, and to permit persons to whom the Software is
  - furnished to do so, subject to the following conditions:
  -
  - The above copyright notice and this permission notice shall be included in all
  - copies or substantial portions of the Software.
  -
  - THE SOFTWARE IS PROVIDED "AS IS", WITHOUT WARRANTY OF ANY KIND, EXPRESS OR
  - IMPLIED, INCLUDING BUT NOT LIMITED TO THE WARRANTIES OF MERCHANTABILITY,
  - FITNESS FOR A PARTICULAR PURPOSE AND NONINFRINGEMENT. IN NO EVENT SHALL THE
  - AUTHORS OR COPYRIGHT HOLDERS BE LIABLE FOR ANY CLAIM, DAMAGES OR OTHER
  - LIABILITY, WHETHER IN AN ACTION OF CONTRACT, TORT OR OTHERWISE, ARISING FROM,
  - OUT OF OR IN CONNECTION WITH THE SOFTWARE OR THE USE OR OTHER DEALINGS IN THE
  - SOFTWARE.
  -
  -
  -->

<!DOCTYPE svg PUBLIC "-//W3C//DTD SVG 1.1//EN" "http://www.w3.org/Graphics/SVG/1.1/DTD/svg11.dtd">
<svg version="1.1" xmlns="http://www.w3.org/2000/svg" xmlns:xlink="http://www.w3.org/1999/xlink" x="0px"
     y="0px" width="64px" height="64px" viewBox="0 0 16 16" enable-background="new 0 0 16 16" xml:space="preserve">  <image
  id="image0" width="16" height="16" x="0" y="0"
  xlink:href="data:image/png;base64,iVBORw0KGgoAAAANSUhEUgAAABAAAAAQCAMAAAAoLQ9TAAAABGdBTUEAALGPC/xhBQAAACBjSFJN
AAB6JgAAgIQAAPoAAACA6AAAdTAAAOpgAAA6mAAAF3CculE8AAAAulBMVEUAAADmIpfeIabVILXN
IMPFH8+8Ht61HuuvHfX2I33uI4vmIpjdIabVILTNIMLFH9C8Ht+0Hez+JHAAAAD+Lmb9JHD+OF2z
He7+QlX+N167HuD+TEv+QVXDH9O7HuH/VUP+Sk3LH8bCH9T/XzvTILj/aTL/Xjv////aIazSILn/
cynjIp3aIav/fCH/aDP/Xjz+VEX+Sk7+P1f+NWD+K2n7JHTzI4LqIpDiIp//cir/XTz+Plj7JHXy
I4OddfVBAAAAAXRSTlMAQObYZgAAAAFiS0dEJy0PqCMAAAAHdElNRQflDBgGJRwif0L6AAAAgklE
QVQY02NgIAYwMjGzsLKxcwABmM/Jxc3Dy8cvIAgTEeIUhgGIgIgomoCYCFxAHCwgIQkXkBIHCUjL
wAVk5UAC8gpwAUUlkICyPFxARREkoKomrK6uDhbQ0AQJaKnCVWjrgAR0tfT0DQyNjE1MzcwtwG7X
tdSzMjC0NjaxscXiUwAGZQ+v9Ch9/gAAACV0RVh0ZGF0ZTpjcmVhdGUAMjAyMS0xMi0yNFQwNjoz
NzoyOC0wODowMLOWw4gAAAAldEVYdGRhdGU6bW9kaWZ5ADIwMjEtMTItMjRUMDY6Mzc6MjgtMDg6
MDDCy3s0AAAAAElFTkSuQmCC"/>
  <g>
    <path
      d="M13.7129 15.3607H6.18464C5.72426 15.3607 5.28274 15.1778 4.95721 14.8523C4.63168 14.5268 4.44879 14.0852 4.44879 13.6248V11.7633C4.50341 11.3219 4.70385 10.9114 5.01832 10.5969C5.33279 10.2825 5.74328 10.082 6.18464 10.0273H13.7129C14.1733 10.0273 14.6148 10.2103 14.9404 10.5358C15.2659 10.8613 15.4488 11.3029 15.4488 11.7633V13.6248C15.4488 14.0852 15.2659 14.5268 14.9404 14.8523C14.6148 15.1778 14.1733 15.3607 13.7129 15.3607V15.3607Z"
      fill="#FDB60D"/>
    <path
      d="M6.65791 11.4923H8.54598V11.9823H7.205V12.4902H8.3851V12.98H7.205V13.5056H8.5639V13.9954H6.6579L6.65791 11.4923Z"
      fill="black"/>
    <path
      d="M9.91187 11.4746H10.4196L11.4924 13.9954H10.9167L10.6878 13.4342H9.62947L9.40063 13.9954H8.83929L9.91187 11.4746ZM10.4913 12.9478L10.1587 12.1361L9.82622 12.9478H10.4913Z"
      fill="black"/>
    <path
      d="M11.8786 11.4924H12.9013C13.0228 11.478 13.1459 11.4897 13.2624 11.5268C13.3789 11.5639 13.4862 11.6254 13.5769 11.7074C13.6677 11.7894 13.7399 11.8898 13.7886 12.002C13.8374 12.1141 13.8615 12.2354 13.8596 12.3577V12.3649C13.8585 12.4917 13.8306 12.6167 13.7775 12.7319C13.7245 12.847 13.6476 12.9496 13.5519 13.0328C13.4563 13.116 13.344 13.1779 13.2226 13.2145C13.1012 13.251 12.9735 13.2612 12.8478 13.2447H12.4294V13.9955H11.8786L11.8786 11.4924ZM12.8655 12.7547C12.9196 12.7615 12.9746 12.7569 13.0268 12.7411C13.079 12.7252 13.1272 12.6985 13.1684 12.6627C13.2096 12.6269 13.2428 12.5829 13.2658 12.5334C13.2887 12.4839 13.301 12.4302 13.3018 12.3756V12.3684C13.3018 12.1219 13.1302 11.9894 12.8548 11.9894H12.4294V12.7547H12.8655Z"
      fill="black"/>
  </g>

</svg>

<svg xmlns="http://www.w3.org/2000/svg" xmlns:xlink="http://www.w3.org/1999/xlink" xml:space="preserve" width="64" height="64" viewBox="0 0 16 16"><image xlink:href="data:image/png;base64,iVBORw0KGgoAAAANSUhEUgAAABAAAAAQCAMAAAAoLQ9TAAAABGdBTUEAALGPC/xhBQAAACBjSFJN AAB6JgAAgIQAAPoAAACA6AAAdTAAAOpgAAA6mAAAF3CculE8AAAAulBMVEUAAADmIpfeIabVILXN IMPFH8+8Ht61HuuvHfX2I33uI4vmIpjdIabVILTNIMLFH9C8Ht+0Hez+JHAAAAD+Lmb9JHD+OF2z He7+QlX+N167HuD+TEv+QVXDH9O7HuH/VUP+Sk3LH8bCH9T/XzvTILj/aTL/Xjv////aIazSILn/ cynjIp3aIav/fCH/aDP/Xjz+VEX+Sk7+P1f+NWD+K2n7JHTzI4LqIpDiIp//cir/XTz+Plj7JHXy I4OddfVBAAAAAXRSTlMAQObYZgAAAAFiS0dEJy0PqCMAAAAHdElNRQflDBgGJRwif0L6AAAAgklE QVQY02NgIAYwMjGzsLKxcwABmM/Jxc3Dy8cvIAgTEeIUhgGIgIgomoCYCFxAHCwgIQkXkBIHCUjL wAVk5UAC8gpwAUUlkICyPFxARREkoKomrK6uDhbQ0AQJaKnCVWjrgAR0tfT0DQyNjE1MzcwtwG7X tdSzMjC0NjaxscXiUwAGZQ+v9Ch9/gAAACV0RVh0ZGF0ZTpjcmVhdGUAMjAyMS0xMi0yNFQwNjoz NzoyOC0wODowMLOWw4gAAAAldEVYdGRhdGU6bW9kaWZ5ADIwMjEtMTItMjRUMDY6Mzc6MjgtMDg6 MDDCy3s0AAAAAElFTkSuQmCC" width="16" height="16"/><path fill="#FDB60D" d="M13.713 15.36H6.185a1.736 1.736 0 0 1-1.736-1.735v-1.862a1.996 1.996 0 0 1 1.736-1.736h7.528a1.736 1.736 0 0 1 1.736 1.736v1.862a1.736 1.736 0 0 1-1.736 1.736"/><path d="M6.658 11.492h1.888v.49H7.205v.508h1.18v.49h-1.18v.526h1.359v.49H6.658zM9.912 11.475h.508l1.072 2.52h-.575l-.23-.56H9.63l-.228.56h-.562zm.58 1.473-.333-.812-.333.812zM11.879 11.492H12.9a.857.857 0 0 1 .959.866v.007a.895.895 0 0 1-1.012.88h-.419v.75h-.55zm.987 1.263a.39.39 0 0 0 .436-.38v-.007c0-.246-.172-.379-.447-.379h-.426v.766z"/></svg>
